X:1
T:Minster Court, 88.77.774
T:Edward Cuthbert Bairstow, 1915
T:Minster Court, 88.77.774
T:Public Domain
C:Edward Cuthbert Bairstow, 1915
Z:Public Domain
%%score ( 1 2 ) ( 3 4 )
L:1/8
M:none
K:D
V:1 treble 
V:2 treble 
V:3 bass 
V:4 bass 
V:1
 A2 AA B2 [CA]2 | F2 E2 [A,F]2 [EF]2 | G2 F2 A2 [CF]2 | E2 D2 [CE]4 | E2 z A [G=c]2 [FB]2 | %5
 [Ee]2 [Fd]2 (G2 AG) | [Fd]2 [Ae]2 [Fd]2 ([Ac][GB]) | [Fd]2 [DF]2 [CE]4 | E2 z E [CG]2 [DF]2 | %9
 [FB]2 [FA]2 (F2 ED) | [CA]2 [GB]2 F2 z d x | [Dd]2 [EB]2 [Fd]4 | ([CA]2 [DB]2 [CA]2) ([B,G][DF]) | %13
 (D2 C2) [DA]4 |] %14
V:2
 D6 x2 | B,4 x4 | D6 x2 | B,4 x4 | A3 F2 x3 | x4 c4 | x8 | x8 | E3 D2 x3 | x4 ^G4 | x4 d3 A2 | x8 | %12
 x8 | A4 x4 |] %14
V:3
 [D,F,]2 [F,,A,]2 [G,,G,]2 [A,,E,]2 | B,,2 C,2 [D,F,]2 [C,A,]2 | [B,,B,]2 [D,A,]2 F,,2 A,,2 | %3
 [B,,G,]2 [D,F,]2 [A,,A,]4 | C2 z A, [A,E]2 [A,^D]2 | [G,B,]2 [F,B,]2 ([E,C]2 DC) | %6
 [B,D]2 [A,C]2 B,2 ([F,A,][G,B,]) | [D,A,]2 [F,A,]2 A,4 | [G,B,]2 [F,A,]2 [E,G,]2 [D,A,]2 | %9
 [B,,D]2 [C,C]2 ([D,B,]2 CB,) | [F,A,]2 [E,G,]2 [D,A,]2 (DC) x | [G,B,]2 G,2 [D,A,]4 | %12
 (F,2 B,,2 F,,2) (G,,B,,) | [A,,E,]4 [D,F,]4 |] %14
V:4
 x8 | G,4 x4 | x4 A,4 | x8 | A,3 ^D2 x3 | x6 A,2 | x4 B,2 x2 | x4 A,4 | x8 | x6 E,2 | x6 F,2 x | %11
 x2 G,2 x4 | F,6 D,2 | x8 |] %14

